!!!OTL: Der gute Fund.
!!!OTL-incipit: WIR HABEN UNS DURCH GOTTES HAND
!!!COM: Alb. Heintz
!!!ARE: Europa, Mitteleuropa, Deutschland
!!!SCT: F0931
!!!TXL: @@DE
!!!YEM: Copyright 1995, estate of Helmut Schaffrath.
**kern	**text	**text	**text	**text
*ICvox	*	*	*	*
*clefG2	*	*	*	*
*M4/4	*	*	*	*
*met(c)	*	*	*	*
*k[b-]	*	*	*	*
*F:	*	*	*	*
!LO:TX:a:t=Innig. Mit Andacht.	!	!	!	!
{4a	1._Wir	2._Drum	3._Ein	4._So
=1	=1	=1	=1	=1
4b-/	ha-	dank'	from-	ſeg-
8aL	-ben	ich	-mes	-ne
8gJ	.	.	.	.
4a	uns,	Gott	Herʒ	der
4cc	durch	mit	ʒu	dich,
=2	=2	=2	=2	=2
4.ff	Got-	frohem	Gott	der
8ee	-tes	.	ge-	durch
4dd}	Hand	Muth	-kehrt,	dich
{4dd	ge-	für	von	auch
=3	=3	=3	=3	=3
4gg	-lei-	dich,	ſei-	mich
4ff	-tet,	du	-nem	ſo
4dd	einſt	ſei-	Geiſt	reich-
4b-	ge-	-ne	ge-	-lich
=4	=4	=4	=4	=4
2a	-fun-	Ga-	-trie-	ſeg-
4g}	-den;	-be;	-ben;	-net;
{4a	er	wohl	ein	ʒu
=5	=5	=5	=5	=5
4b-/	hat	mir,	lie-	lat-
8aL	das	wohl	-bend	-ter
8gJ	.	.	.	.
4a	Band,	mir	Herʒ,	Se-
4cc	das	ich	von	-gen
=6	=6	=6	=6	=6
4.ff	1._lie-	2._hab'	3._Gott	4._wen-
8ee	-be	es	ge-	-de
4dd}	Band,	gut,	-lehrt,	ſich,
{4dd	das	daß	un-	was
=7	=7	=7	=7	=7
4ff	uns	dei-	-wan-	dir
4dd	ver-	-ne	-del-	und
4a	-eint,	Lieb'	-bar	mir
8ccL	ge-	ich	ʒu	be-
8ddJ	.	.	.	.
=8	=8	=8	=8	=8
(4.ee	-wun-	ha-	lie-	-geg
8dd)	.	.	.	.
4cc}	-den.	-be.	-ben;	-net.
{4cc	Wo-	So	ein	In
=9	=9	=9	=9	=9
4gg	-ʒu	man-	Herʒ	Glauben,
8eeL	dich	-cher	drauf	.
8ddJ	.	.	.	.
4cc	ſei-	Tag	ſich	Lieb'
8b-L	-ne	und	ge-	und
8aJ	.	.	.	.
=10	=10	=10	=10	=10
4b-	Huld	man-	-troſt	Hoff-
8g\L	ge-	-ches	ein	-nung
8b-J	.	.	.	.
4a\}	-macht,	Jahr	Mann	eins,
{4cc	das	ʒeugt	in	ſei
=11	=11	=11	=11	=11
4gg	1._hat	2._mir,	3._Wohl	4._auch
8eeL	er	es	und	dein
8ddJ	.	.	.	.
4cc	dir	ſei	Weh	ew'-
8b-\L	auch	ge-	ver-	-ges
8aJ	.	.	.	.
=12	=12	=12	=12	=12
4b-	ʒu-	-wiß-	-laſ-	Er-
8g\L	-ge-	-lich	-ſen	-be
8b-J	.	.	.	.
4a\}	-dacht,	wahr,	kann,	mein's,
{8a\L	und	daß	und	daß
8b-J	.	.	.	.
=13	=13	=13	=13	=13
4dd	was	der	das	dich
4cc	er	was	ʒu	und
4.ff	dir	Gu-	al-	mich
8ee	ge-	-tes	-len	kein
=14	=14	=14	=14	=14
2ee	-ge-	fin-	Stunden	Lei-
4dd}	-ben,	-det,	.	-den
{4dd	das	dem	wird	und
=15	=15	=15	=15	=15
4gg	ſchmückt	ſich	hold	auch
4ff	nun	ein	und	kein
4dd	auch	Herʒ	treu	Tod
4b-	mein	ver-	er-	mag
=16	=16	=16	=16	=16
(>2.a	1._Le-	-2._bin-	-3._fun-	4._ſchei-
4g)	.	.	.	.
=17	=17	=17	=17	=17
2f	-ben.	-det.	-den	-den-
4r}	.	.	.	.
==	==	==	==	==
!!!AGN: Liebes - Lied, religioes
!!!ONB: ESAC (Essen Associative Code) Database: FINK
!!!AMT: simple quadruple
!!!AIN: vox
!!!EED: Helmut Schaffrath
!!!EEV: 1.0
!!Text: Spitta
!!!GTL: Minnelieder
!!!source: Musikalischer Hausschatz der Deutschen. Eine Sammlung von über 1000 Liedern und Gesängen mit Singstimmen und Klavierbegleitung. Leipzig, Litterarisches Verlags-Haus.
!!!page: 691
!!!URL-scan: https://www.digitale-sammlungen.de/en/view/bsb11144622?page=601
!!!ENC: Anna Maria Matuszewska
!!!EEV: 2024/08/08
*-	*-	*-	*-	*-